X: 37778
T: Song For Rich
R: waltz
M: 3/4
K: Gmajor
{A}GA|{A}B3G AF|{AF}G4 gf|{f}e4 {ef}e2|d4 {A}BA|G4 {GA}GD|E<<G2 {A}B2|
A6-|{AB}A4 {A}GA|B3G AF|{FA}G4 gf|{f}e4 {ef}e2|d4 BA|
G4 {F}GD|E<<G2 {A}B2{cB}|A3G F2|{F}G4 ga|:{a}b3g af|{ga}g4 {a}ba|
{a}g4 {g}e|{e}d4 {B}GB|{B}d3{d}B {A}BA|{A}G4 {A}GD|E<<G2 {G}B2{BcB}|A6-|A4 {A}GA|
{A}B3G AF|{F}G4 gf|{f}e4{efe} e2|{e}d4 BA|{A}G4 {F}GD|E<<G2 B2{cB}|
[1 A3G {FG}F2|{F}G4 ga:|2 A3G F>G|{F}G6-|G4||

